X: 170
T:Rolling on the Ryegrass
T: The Shannon Breeze
T: The Rathkeale Hunt
T: Maureen Playboy
T: Old Mollie Ahern
R:reel
B:O'Neills of Ireland : Over thousand fiddle tunes
S:bohola
M:C|
K:G
dB| ABAF DFAF | (3GGG BG dGBG | ABAF DFAF | GBAF (3EGE D2 | 
A3 F DFAF | GFEF GBdB | ABAF  DFAF | (3GBA D2 GE |
|| ABde ~f3 a| ~g3 e fedB | ABde ~f3 g|1 afdf e2 d2 :|2 afdf e2||
